X:554
T:Knocknaboul polka 1
T:The glen cottage
T:The Scartaglen polka
R:Polka
O:Ireland
P:See also: Maggie in the wood
D:Davy Spillane: Atlantic Bridge- Scartaglen
B:Ceol Rince 3 n62
B:Irish Fiddle Book p144
B:Irish Traditional Music Session Tunes
S:?
Z:Transcription, arrangement (?), chords:Mike Long
M:2/4
L:1/8
K:G
"G"GD G>A|Bd de/f/|gB B/A/G/A/|"D"BA AB/A/|\
"G"GD G>A|Bd de/f/|"G"gB "D"AB/A/|"G"G2 G>A:|
|:"G"Bd g>g|"C"fe e/f/g/e/|"G"dB B/A/G/A/|"D"BA AG/A/|\
"G"Bd g>g|"C"fe e/f/g/e/|"G"dB "D"AB/A/|[1 "G"G2 G>A:|[2 "G"G2 Gd|]
|:"G"g2 "(D)"ga|"G"b2 ba|"G"gg "D"ag/a/|"G"b2 ba|\
"C"ge e/f/g/e/|"G"dB "C"g>e|"G"dB "D"AB/A/|[1 "G"G2 Gd:|[2 "G"G2 G>A|]
